X:137
U: ~ = !turn!
%%topmargin 3cm
T:Mulvihill's
B:Traditional Irish Fiddle Tunes. Randy Miller and Jack Perron.
Z:Transcribed by Ralph Palmer
R:Reel
M:C|
L:1/8
K:D
z B | AFAF G2 FG | AFAF EGFE | DGFA defe | dBAF EcdB |
AFAF GFGB | AFAF EGFE | DGFA defe | dBAF D2 ::
de | f3 a gfgg | afdf edBd | fafe dfec | dBAF E2 fg |
afaf bafg | afdf e2 de | f^ef=e dfec | dBAF D2 :|]
